uWGS5Fhc9ORQB2ldwZM3srBMZlBcpV+9FB6qgPxk6h1unAryh5a+pwMYIV5li+TL3NQLOeCWQseTprpanPjwhMe3Z2c1i8nIBiCH4ToVD4JyAisUNpoQw/6njuzT2UIlWC64CaWNcH69xuFWDWaUhQqqEpsUXkZpa64kv9bdecnD4oba0VAps8UbUy7b86J8fdRhv7/nbeqkchZkUJ5WvXvxzi82UWCVufl88UgHciYRYixhyxFHkvJgmPPqquEzNcHHc3AN9UK6VzVz8VNW3oS6xR+s6ZqcHvlMTCi3nFdvj4ikKg4+7Zz8y6QpWcIuRmTYq1tKXkZIFxhlR4XVbe0YdIrkRN11oDQltlM60Lcg/hCb4m23Fk6rszZAd0ElBmY3X8rTdUcYiH+ZO6Yke9Pt2YAu+Iu89wD+pSGYC/gJQFCBP+fj5rax8KeUtjOjeHzwKvu7YZcJNox51+Bh4zn4KvPfurZpCFpNyJ2q88iYDjRHEo476CbAbphn0AWvuJkGgB3IBYHjywM9SLBnvFnVN1UwcmwjTIS2WJpK+Rc1YB4WFgsu1FKndA4bT9lVjUD0zn0IslM0aCoxPmpO96687JGoqziBHC9lGHbr1s8=